X: 5
T: The Galway Rambler
R: reel
M: 4/4
L: 1/8
K: Gmaj
|"G"G/G/G dG "Em"eGdF|"G"G/G/G dG "D"AGEF |"G"G/G/G dG eGde|"C"gedB "D"AGEF|
"G"G/G/G dG "Em"eGdF|"G"G/G/G dG "D"AGEF|"G"G/G/G dG eGde|"C"gedB "D"A3 f||
"G"g/g/g gb "D"agab|"G"gabg "D"agef|"G"g/g/g gb "D"agab|"Em"gedB "D"A3 f|
"G"g/g/g gb "D"agab|"G"gabg "D"a2 ga|"G"b/b/b a/a/a "C"g/g/g ed|"G"gedB "D"AGEF||


Tune 634	Setting 13661

